images/client05.svg

<svg fill="none" height="200" viewBox="0 0 200 200" width="200" xmlns="http://www.w3.org/2000/svg" xmlns:xlink="http://www.w3.org/1999/xlink"><mask id="a" height="16" maskUnits="userSpaceOnUse" width="178" x="11" y="92"><path clip-rule="evenodd" d="m11 107.495h178v-14.9897h-178z" fill="#fff" fill-rule="evenodd"/></mask><path clip-rule="evenodd" d="m17.7862 99.4966-1.1125-2.2931c-.2781-.6712-.5562-1.2865-.5562-1.2865h-.0556l-.5563 1.2865-1.1125 2.2931zm.7232 1.5104h-4.8394l-.8344 1.79h-1.8356l4.9506-10.2358h.3338l4.9506 10.2358h-1.8913zm9.2337-6.712h-1.7244v6.991h1.78c2.5032 0 3.7825-1.3419 3.7825-3.4673-.0556-2.2372-1.2793-3.5237-3.8381-3.5237zm-3.5044-1.566h3.56c3.6157 0 5.5625 2.0694 5.5625 5.0338 0 2.9642-2.0025 5.0342-5.5625 5.0342h-3.56zm20.9707 5.0338c0-2.1254-1.3907-3.5796-3.3375-3.5796-2.0025 0-3.3932 1.4542-3.3932 3.5796 0 2.1253 1.3907 3.5792 3.3932 3.5792 1.9468 0 3.3375-1.4539 3.3375-3.5792zm1.8912 0c0 2.9642-2.1137 5.2572-5.2287 5.2572s-5.2288-2.293-5.2288-5.2572c0-2.9644 2.1138-5.2575 5.2288-5.2575 3.0593 0 5.2287 2.2931 5.2287 5.2575zm3.6713 5.0342v-10.068h1.78v8.557h5.0062l-.5006 1.566h-6.2856zm9.9012-10.068h6.7306l-.5006 1.566h-4.5056v2.6288h4.7281l-.5006 1.5661h-4.2831v4.3621h-1.78v-10.123zm18.1338 5.0338c0-2.1254-1.3907-3.5796-3.3375-3.5796-2.0025 0-3.3932 1.4542-3.3932 3.5796 0 2.1253 1.3907 3.5792 3.3932 3.5792 1.9468 0 3.3375-1.4539 3.3375-3.5792zm1.8356 0c0 2.9642-2.1138 5.2572-5.2288 5.2572s-5.2287-2.293-5.2287-5.2572c0-2.9644 2.1137-5.2575 5.2287-5.2575s5.2288 2.2931 5.2288 5.2575zm7.2312-3.4678h-1.78v6.991h1.78c2.5032 0 3.7825-1.3419 3.7825-3.4673 0-2.2372-1.2793-3.5237-3.7825-3.5237zm-3.56-1.566h3.56c3.6157 0 5.5625 2.0694 5.5625 5.0338 0 2.9642-2.0025 5.0342-5.5625 5.0342h-3.56zm21.0263 5.0338c0-2.1254-1.391-3.5796-3.338-3.5796-2.002 0-3.3926 1.4542-3.3926 3.5796 0 2.1253 1.3906 3.5792 3.3926 3.5792 1.947 0 3.338-1.4539 3.338-3.5792zm1.836 0c0 2.9642-2.114 5.2572-5.229 5.2572-3.1151 0-5.2289-2.293-5.2289-5.2572 0-2.9644 2.1138-5.2575 5.2289-5.2575 3.115 0 5.229 2.2931 5.229 5.2575zm14.295-5.2016v10.2358h-1.724v-4.2512c0-1.2305 0-2.1254 0-2.1254h-.056l-1.224 1.2305-2.336 2.4051-2.336-2.4051-1.224-1.2305h-.055v2.1254 4.2512h-1.725v-10.2358h.39l4.227 4.4185.668.7271.723-.7271 4.227-4.4185z" fill="#fff" fill-rule="evenodd"/><g mask="url(#a)"><path clip-rule="evenodd" d="m125.588 102.797h1.78v-10.068h-1.78zm14.462-10.068v10.123h-.389l-5.007-5.0333c-.834-.839-1.446-1.3983-1.446-1.3983v1.3983 5.0333h-1.78v-10.179h.39l4.95 5.0338c.779.7831 1.446 1.3983 1.446 1.3983s0-.839 0-1.3983v-4.9778zm8.844 10.291c-3.003 0-5.173-2.293-5.173-5.2572 0-2.9644 2.17-5.2575 5.173-5.2575 2.392 0 4.284 1.4542 4.951 3.5236h-2.002c-.557-1.1745-1.614-1.9016-2.949-1.9016-1.891 0-3.337 1.4542-3.337 3.5795 0 2.1813 1.446 3.5792 3.337 3.5792 1.558 0 2.67-.894 3.06-2.2928h-3.06l.501-1.566h4.561v.2796c0 2.9642-2.002 5.3132-5.062 5.3132zm17.244-10.291v6.0405c0 2.9085-1.947 4.3065-4.283 4.3065s-4.339-1.398-4.339-4.3065v-6.0405h1.78v5.9846c0 1.5664.835 2.6844 2.559 2.6844s2.503-1.174 2.503-2.6844v-5.9846zm4.061 10.068v-10.068h7.175l-.5 1.566h-4.951v2.6288h5.173l-.5 1.5661h-4.673v2.7961h5.451l-.5 1.566h-6.675zm18.801-1.567-.501 1.567h-8.399v-.056l5.729-8.5019h-5.506l.5-1.5661h8.121v.056l-5.729 8.501zm-177.9443 4.699h9.2337l.7788 1.566h-10.0125zm73.2581 0h9.2337l.7788 1.566h-9.9569v-1.566z" fill="#fff" fill-rule="evenodd"/></g></svg>

<svg width="200" height="200" viewBox="0 0 200 200" fill="none" xmlns="http://www.w3.org/2000/svg">
<path fill-rule="evenodd" clip-rule="evenodd" d="M17.7862 99.4966L16.6737 97.2035C16.3956 96.5323 16.1175 95.917 16.1175 95.917H16.0619L15.5056 97.2035L14.3931 99.4966H17.7862ZM18.5094 101.007H13.67L12.8356 102.797H11L15.9506 92.5612H16.2844L21.235 102.797H19.3437L18.5094 101.007ZM27.7431 94.295H26.0187V101.286H27.7987C30.3019 101.286 31.5812 99.9441 31.5812 97.8187C31.5256 95.5815 30.3019 94.295 27.7431 94.295ZM24.2387 92.729H27.7987C31.4144 92.729 33.3612 94.7984 33.3612 97.7628C33.3612 100.727 31.3587 102.797 27.7987 102.797H24.2387V92.729ZM45.2094 97.7628C45.2094 95.6374 43.8187 94.1832 41.8719 94.1832C39.8694 94.1832 38.4787 95.6374 38.4787 97.7628C38.4787 99.8881 39.8694 101.342 41.8719 101.342C43.8187 101.342 45.2094 99.8881 45.2094 97.7628ZM47.1006 97.7628C47.1006 100.727 44.9869 103.02 41.8719 103.02C38.7569 103.02 36.6431 100.727 36.6431 97.7628C36.6431 94.7984 38.7569 92.5053 41.8719 92.5053C44.9312 92.5053 47.1006 94.7984 47.1006 97.7628ZM50.7719 102.797V92.729H52.5519V101.286H57.5581L57.0575 102.852H50.7719V102.797ZM60.6731 92.729H67.4037L66.9031 94.295H62.3975V96.9238H67.1256L66.625 98.4899H62.3419V102.852H60.5619V92.729H60.6731ZM78.8069 97.7628C78.8069 95.6374 77.4162 94.1832 75.4694 94.1832C73.4669 94.1832 72.0762 95.6374 72.0762 97.7628C72.0762 99.8881 73.4669 101.342 75.4694 101.342C77.4162 101.342 78.8069 99.8881 78.8069 97.7628ZM80.6425 97.7628C80.6425 100.727 78.5287 103.02 75.4137 103.02C72.2987 103.02 70.185 100.727 70.185 97.7628C70.185 94.7984 72.2987 92.5053 75.4137 92.5053C78.5287 92.5053 80.6425 94.7984 80.6425 97.7628ZM87.8737 94.295H86.0937V101.286H87.8737C90.3769 101.286 91.6562 99.9441 91.6562 97.8187C91.6562 95.5815 90.3769 94.295 87.8737 94.295ZM84.3137 92.729H87.8737C91.4894 92.729 93.4362 94.7984 93.4362 97.7628C93.4362 100.727 91.4337 102.797 87.8737 102.797H84.3137V92.729ZM105.34 97.7628C105.34 95.6374 103.949 94.1832 102.002 94.1832C100 94.1832 98.6094 95.6374 98.6094 97.7628C98.6094 99.8881 100 101.342 102.002 101.342C103.949 101.342 105.34 99.8881 105.34 97.7628ZM107.176 97.7628C107.176 100.727 105.062 103.02 101.947 103.02C98.8319 103.02 96.7181 100.727 96.7181 97.7628C96.7181 94.7984 98.8319 92.5053 101.947 92.5053C105.062 92.5053 107.176 94.7984 107.176 97.7628ZM121.471 92.5612V102.797H119.747V98.5458C119.747 97.3153 119.747 96.4204 119.747 96.4204H119.691L118.467 97.6509L116.131 100.056V100.056L113.795 97.6509L112.571 96.4204H112.516C112.516 96.4204 112.516 97.3153 112.516 98.5458V102.797H110.791V92.5612H111.181L115.408 96.9797L116.076 97.7068L116.799 96.9797L121.026 92.5612H121.471Z" fill="white"/>
<mask id="mask0" style="mask-type:alpha" maskUnits="userSpaceOnUse" x="11" y="92" width="178" height="16">
<path fill-rule="evenodd" clip-rule="evenodd" d="M11 107.495H189V92.5053H11V107.495Z" fill="white"/>
</mask>
<g mask="url(#mask0)">
<path fill-rule="evenodd" clip-rule="evenodd" d="M125.588 102.797H127.368V92.729H125.588V102.797ZM140.05 92.729V102.852H139.661L134.654 97.8187C133.82 96.9797 133.208 96.4204 133.208 96.4204C133.208 96.4204 133.208 97.0357 133.208 97.8187V102.852H131.428V92.673H131.818L136.768 97.7068C137.547 98.4899 138.214 99.1051 138.214 99.1051C138.214 99.1051 138.214 98.2661 138.214 97.7068V92.729H140.05ZM148.894 103.02C145.891 103.02 143.721 100.727 143.721 97.7628C143.721 94.7984 145.891 92.5053 148.894 92.5053C151.286 92.5053 153.178 93.9595 153.845 96.0289H151.843C151.286 94.8544 150.229 94.1273 148.894 94.1273C147.003 94.1273 145.557 95.5815 145.557 97.7068C145.557 99.8881 147.003 101.286 148.894 101.286C150.452 101.286 151.564 100.392 151.954 98.9932H148.894L149.395 97.4272H153.956V97.7068C153.956 100.671 151.954 103.02 148.894 103.02ZM166.138 92.729V98.7695C166.138 101.678 164.191 103.076 161.855 103.076C159.519 103.076 157.516 101.678 157.516 98.7695V92.729H159.296V98.7136C159.296 100.28 160.131 101.398 161.855 101.398C163.579 101.398 164.358 100.224 164.358 98.7136V92.729H166.138ZM170.199 102.797V92.729H177.374L176.874 94.295H171.923V96.9238H177.096L176.596 98.4899H171.923V101.286H177.374L176.874 102.852H170.199V102.797ZM189 101.23L188.499 102.797H180.1V102.741L185.829 94.2391H180.323L180.823 92.673H188.944V92.729L183.215 101.23H189V101.23ZM11.0557 105.929H20.2894L21.0682 107.495H11.0557V105.929ZM84.3138 105.929H93.5475L94.3263 107.495H84.3694V105.929H84.3138Z" fill="white"/>
</g>
</svg>
